X: 76
M:2/4
L:1/16
K:Bb
uF2|BABc BFdc|BABc BFdc|Bcde fdgf|edcB AFGA|
|:vAuB|cBAB cdec|dcBc defd|cBAB cded|cBAG Ffec|


